<?xml version="1.0" encoding="UTF-8"?>
<map version="1.10" tiledversion="1.11.2" orientation="orthogonal" renderorder="right-down" width="32" height="32" tilewidth="8" tileheight="8" infinite="0" nextlayerid="2" nextobjectid="1">
 <tileset firstgid="1" source="boofTiles.tsx"/>
 <layer id="1" name="Tile Layer 1" width="32" height="32">
  <data encoding="csv">
7,8,3,3,3,28,3,3,3,4,3,3,3,4,3,3,4,4,4,4,4,4,4,4,4,4,4,3,7,8,4,4,
32,33,28,28,28,28,28,28,3,3,3,3,3,3,3,3,3,3,3,3,3,4,4,4,4,29,29,28,32,33,4,29,
5,6,5,6,5,6,5,28,28,28,28,28,28,28,28,28,28,3,4,4,4,4,4,29,29,28,29,6,3,4,4,3,
30,31,30,31,30,31,30,31,30,31,30,31,30,31,30,31,30,28,29,29,29,29,4,4,30,31,30,31,3,4,29,3,
5,6,5,6,5,6,5,6,5,6,5,6,5,6,5,6,5,6,28,28,28,29,29,29,5,6,5,6,3,4,3,3,
30,31,30,31,30,31,30,31,30,31,30,31,30,31,30,31,30,31,30,31,30,31,30,31,30,31,30,31,3,4,28,3,
5,6,5,6,5,6,5,6,5,6,5,6,5,6,5,6,5,6,5,6,5,6,5,6,5,6,5,6,3,4,28,3,
30,31,30,31,30,31,30,31,3,4,4,3,4,4,30,31,30,31,30,31,30,31,30,31,30,31,30,31,3,4,28,3,
5,6,5,6,5,6,5,6,28,3,3,28,29,29,3,4,4,4,4,6,5,6,5,6,5,6,5,3,4,4,28,3,
30,31,30,31,30,31,30,31,3,28,28,28,29,3,4,4,4,29,29,31,30,31,30,31,30,31,30,3,4,29,28,3,
5,6,5,6,5,6,5,6,28,28,3,4,3,28,29,29,29,4,29,6,5,6,5,6,5,6,5,3,4,3,28,3,
30,31,30,31,30,31,30,31,28,29,3,3,3,3,3,28,29,29,29,31,30,31,30,31,30,31,30,3,4,3,28,3,
5,6,5,6,5,6,5,3,28,3,4,3,28,28,3,28,28,29,5,6,5,6,5,6,5,6,5,3,3,3,3,4,
30,31,30,31,30,31,30,3,3,3,3,28,28,29,28,28,29,31,30,31,30,31,30,31,30,31,30,3,3,28,3,4,
5,6,5,6,5,6,5,3,28,28,28,28,29,6,5,6,5,6,5,6,5,6,5,6,5,6,3,4,3,28,3,4,
30,31,30,31,30,31,30,3,28,29,30,31,30,31,30,31,30,31,30,31,30,31,30,3,4,4,4,29,28,29,3,4,
5,6,5,6,5,6,5,28,28,29,5,6,5,6,5,6,5,6,5,6,3,4,4,4,4,3,4,3,28,3,4,29,
30,31,30,31,30,31,30,31,30,31,30,31,30,31,30,31,30,31,30,31,3,4,29,29,3,4,4,3,28,3,4,29,
7,8,5,6,5,6,5,6,5,6,5,6,5,6,5,6,5,6,5,6,28,3,4,4,3,4,29,3,7,8,3,4,
32,33,30,31,30,31,30,31,30,31,30,31,30,31,30,31,30,31,30,31,30,3,4,29,3,4,29,3,32,33,3,4,
5,6,5,6,5,6,5,6,5,6,5,6,5,6,5,6,5,6,5,6,5,3,4,4,3,4,29,3,3,3,3,4,
30,31,30,31,30,31,30,31,30,31,30,31,30,31,30,31,30,31,30,31,30,3,4,3,3,3,4,28,3,3,3,4,
5,6,5,6,5,6,5,6,5,6,5,6,5,6,5,6,5,6,5,6,5,3,3,4,28,28,3,3,28,3,3,4,
30,31,30,31,30,31,30,31,3,4,4,4,4,4,4,4,30,31,30,31,30,28,3,3,3,3,28,28,3,3,4,29,
5,6,5,6,5,6,5,6,3,1,2,1,2,2,2,29,5,6,5,6,5,6,28,28,28,28,29,6,3,4,29,28,
30,31,30,31,30,31,30,31,3,26,27,2,2,27,27,29,30,31,30,31,30,31,30,31,30,31,30,31,3,4,29,28,
5,6,5,6,5,6,5,6,3,26,27,27,27,2,27,29,5,6,5,6,5,6,5,6,5,6,5,3,4,29,29,28,
30,31,30,31,30,31,30,31,3,1,1,26,1,1,2,29,30,31,30,31,30,31,30,31,30,31,30,3,4,28,29,28,
5,6,5,6,5,6,5,6,3,26,26,26,26,26,27,29,5,6,5,6,5,6,5,6,5,6,3,4,4,28,29,28,
30,31,30,31,30,31,30,31,28,28,28,29,28,28,29,29,30,31,30,31,30,31,30,31,30,3,4,29,29,3,4,28,
5,6,5,6,5,6,5,6,5,6,5,6,5,6,5,6,5,6,5,6,5,6,5,6,3,4,29,28,29,3,3,28,
30,31,30,31,30,31,30,31,30,31,30,31,30,31,30,31,30,31,30,31,30,31,3,3,4,4,4,4,4,3,28,29
</data>
 </layer>
</map>
