<?xml version="1.0" encoding="UTF-8"?>
<map version="1.10" tiledversion="1.11.2" orientation="orthogonal" renderorder="right-down" width="32" height="32" tilewidth="8" tileheight="8" infinite="0" nextlayerid="2" nextobjectid="1">
 <editorsettings>
  <export target="../bossBGTest.c" format="gba"/>
 </editorsettings>
 <tileset firstgid="1" source="singleLayerTiles.tsx"/>
 <layer id="1" name="Tile Layer 1" width="32" height="32">
  <data encoding="csv">
302,227,226,227,226,227,226,227,226,227,226,227,226,227,226,227,226,227,226,227,226,227,226,227,226,227,226,227,226,302,226,227,
242,243,242,243,242,243,242,243,242,243,242,243,242,243,242,243,242,243,242,243,242,243,242,243,242,243,242,243,242,243,242,243,
226,227,226,227,226,227,226,227,226,227,226,227,226,227,226,227,226,227,226,227,226,227,226,227,226,227,226,227,226,227,226,227,
242,243,242,243,242,243,242,243,242,243,242,243,242,243,242,243,242,243,242,243,242,243,242,243,242,243,242,243,242,243,242,243,
226,227,226,227,226,227,226,227,226,227,226,227,226,227,226,227,226,227,226,227,226,227,226,227,226,227,226,227,226,227,226,227,
242,243,242,243,242,243,242,243,242,243,242,243,242,243,242,243,242,243,242,243,242,243,242,243,242,243,242,243,242,243,242,243,
226,227,226,227,226,227,226,227,226,227,226,227,226,227,226,227,226,227,226,227,226,227,226,227,226,227,226,227,226,227,226,227,
242,243,242,243,242,243,242,243,242,243,242,243,242,243,242,243,242,243,242,243,242,243,242,243,242,243,242,243,242,243,242,243,
226,227,226,227,226,227,226,227,226,227,226,227,226,227,226,227,226,227,226,227,226,227,226,227,226,227,226,227,226,227,226,227,
242,243,242,243,242,243,242,243,242,243,242,243,242,243,242,243,242,243,242,243,242,243,242,243,242,243,242,243,242,243,242,243,
226,227,226,227,226,227,226,227,226,227,226,227,226,227,226,227,226,227,226,227,226,227,226,227,226,227,226,227,226,227,226,227,
242,243,242,243,242,243,242,243,242,243,242,243,242,243,242,243,242,243,242,243,242,243,242,243,242,243,242,243,242,243,242,243,
226,227,226,227,226,227,226,227,226,227,226,227,226,227,226,227,227,227,227,227,227,227,226,227,226,227,226,227,226,227,226,227,
111,111,111,111,111,111,111,111,111,111,111,111,111,111,111,111,111,111,111,111,111,111,111,111,111,111,111,111,111,111,242,243,
111,111,111,111,111,111,111,111,111,111,111,111,111,111,111,111,111,111,111,111,111,111,111,111,111,111,111,111,111,111,226,227,
111,111,111,111,111,111,111,111,111,111,111,111,111,111,111,111,111,111,111,111,111,111,111,111,111,111,111,111,111,111,242,243,
111,111,111,111,111,111,111,111,111,111,111,111,111,111,111,111,111,111,111,111,111,111,111,111,111,111,111,111,111,111,226,227,
111,111,111,111,111,111,111,111,111,111,111,111,111,111,111,111,111,111,111,111,111,111,111,111,111,111,111,111,111,111,242,243,
111,111,111,111,111,111,111,111,111,111,111,111,111,111,111,111,111,111,111,111,111,111,111,111,111,111,111,111,111,111,226,227,
111,111,111,111,111,111,111,111,111,111,111,111,111,111,111,111,111,111,111,111,111,111,111,111,111,111,111,111,111,111,242,243,
275,275,227,227,227,227,227,227,227,227,227,227,227,227,227,227,227,227,227,227,227,227,227,227,227,227,227,227,227,227,227,227,
275,275,242,243,242,243,242,243,242,243,242,243,242,243,242,243,242,243,242,243,242,243,242,243,242,243,242,243,242,243,242,243,
275,275,226,227,226,227,226,227,226,227,226,227,226,227,226,227,226,227,226,227,226,227,226,227,226,227,226,227,226,227,226,227,
242,275,242,243,242,243,242,243,242,243,242,243,242,243,242,243,242,243,242,243,242,243,242,243,242,243,242,243,242,243,242,243,
226,227,226,227,226,227,226,227,226,227,226,227,226,227,226,227,226,227,226,227,226,227,226,227,226,227,226,227,226,227,226,227,
242,243,242,243,242,243,242,243,242,243,242,243,242,243,242,243,242,243,242,243,242,243,242,243,242,243,242,243,242,243,242,243,
226,227,226,227,226,227,226,227,226,227,226,227,226,227,226,227,226,227,226,227,226,227,226,227,226,227,226,227,226,227,226,227,
242,243,242,243,242,243,242,243,242,243,242,243,242,243,242,243,242,243,242,243,242,243,242,243,242,243,242,243,242,243,242,243,
226,227,226,227,226,227,226,227,226,227,226,227,226,227,226,227,226,227,226,227,226,227,226,227,226,227,226,227,226,227,226,227,
242,243,242,243,242,243,242,243,242,243,242,243,242,243,242,243,242,243,242,243,242,243,242,243,242,243,242,243,242,243,242,243,
226,227,226,227,226,227,226,227,226,227,226,227,226,227,226,227,226,227,226,227,226,227,226,227,226,227,226,227,226,227,226,227,
242,243,242,243,242,243,242,243,242,243,242,243,242,243,242,243,242,243,242,243,242,243,242,243,242,243,242,243,242,243,242,243
</data>
 </layer>
</map>
