<?xml version="1.0" encoding="UTF-8"?>
<map version="1.10" tiledversion="1.11.2" orientation="orthogonal" renderorder="right-down" width="64" height="32" tilewidth="8" tileheight="8" infinite="0" nextlayerid="2" nextobjectid="1">
 <editorsettings>
  <export target="../singleLayerMap.c" format="gba"/>
 </editorsettings>
 <tileset firstgid="1" source="singleLayerTiles.tsx"/>
 <layer id="1" name="Tile Layer 1" width="64" height="32">
  <data encoding="csv">
189,190,191,192,189,190,191,192,189,190,191,192,189,190,191,192,117,118,119,120,129,130,3,73,74,75,76,4,193,194,195,194,195,194,195,194,195,194,195,196,197,117,118,119,120,117,118,119,120,2,3,4,1,2,3,4,1,2,3,4,1,2,3,4,
205,206,207,208,205,206,207,208,205,206,207,208,205,206,207,208,133,134,135,136,145,146,19,89,90,91,92,20,209,210,211,210,211,210,211,210,211,210,211,212,213,133,134,135,136,133,134,135,136,2,19,20,17,18,41,42,17,18,19,20,41,42,19,20,
221,222,223,224,221,222,223,224,221,222,223,224,221,222,223,224,149,150,151,152,33,129,130,105,106,107,108,36,225,226,227,226,227,226,227,226,227,226,227,228,229,149,150,151,152,149,150,151,152,18,35,36,33,34,57,58,200,201,202,203,57,58,35,36,
237,238,239,240,237,238,239,240,237,238,239,240,237,238,239,240,165,166,167,168,1,145,146,121,122,123,124,4,209,226,226,227,227,227,227,227,227,227,227,228,229,165,166,167,168,165,166,167,168,34,3,4,41,42,214,215,216,217,218,219,220,41,42,4,
253,254,255,256,253,254,255,256,253,254,255,256,253,254,255,256,181,182,183,184,129,130,19,137,138,139,140,20,225,226,226,227,243,243,243,243,243,243,243,244,245,181,182,183,184,181,182,183,184,2,19,20,57,58,230,231,232,233,234,235,236,57,58,20,
73,74,75,76,73,74,75,76,269,270,129,130,269,270,271,129,130,131,132,36,145,146,35,153,154,155,156,193,227,226,226,226,226,226,227,226,226,227,259,260,261,189,190,191,192,189,190,191,192,18,35,36,41,42,246,247,248,249,250,251,252,41,42,36,
89,90,91,92,89,90,91,92,129,130,145,146,1,2,3,145,146,147,148,4,1,2,3,4,193,194,195,227,227,226,242,242,242,242,243,227,227,227,227,228,229,205,206,207,208,205,206,207,208,34,3,4,57,58,262,263,264,265,266,267,268,57,58,4,
105,106,107,108,105,106,107,108,145,146,19,20,129,130,19,161,162,163,164,20,17,18,19,20,209,226,226,227,243,242,242,274,275,274,275,274,274,275,259,260,261,221,222,223,224,221,222,223,224,2,19,20,17,18,278,279,280,281,282,283,284,18,19,20,
121,122,123,124,121,122,123,124,33,34,129,130,145,146,35,177,178,179,180,36,33,34,35,36,225,242,226,227,226,242,244,290,291,290,291,290,290,273,274,276,277,237,238,239,240,237,238,239,240,129,130,131,132,34,294,295,296,297,298,299,300,34,35,36,
137,138,139,140,137,138,139,140,129,130,145,146,1,2,3,4,1,2,3,4,1,2,3,4,273,274,274,275,274,274,276,277,1,2,3,4,1,289,290,292,293,253,254,255,256,253,254,255,256,145,146,147,148,2,310,311,312,313,314,315,316,2,3,4,
153,154,155,156,153,154,155,156,145,146,19,20,17,18,19,20,17,18,19,20,17,18,19,20,289,290,290,291,290,290,292,293,17,18,19,20,17,18,19,20,17,269,270,271,272,269,270,271,272,145,162,163,164,18,19,20,17,18,19,20,17,18,19,20,
129,130,131,132,33,34,35,36,33,34,35,36,33,34,35,36,33,34,35,36,33,34,35,36,33,34,35,36,33,34,35,36,33,34,35,36,33,34,35,36,33,34,35,36,33,34,35,36,33,177,178,179,180,34,35,36,33,34,35,36,33,34,35,36,
145,146,147,148,1,2,3,4,1,2,3,4,1,2,3,4,1,2,3,4,1,2,3,4,1,2,3,4,1,2,3,4,1,2,3,4,129,130,131,132,1,2,3,4,1,2,3,4,1,2,3,4,1,2,3,4,1,2,3,4,1,2,3,4,
161,162,163,164,17,18,19,20,17,18,19,20,17,18,19,20,17,18,129,130,131,132,41,42,17,18,19,20,17,18,19,20,17,18,19,20,145,146,147,148,17,18,19,20,17,18,19,20,17,18,19,20,17,18,19,20,17,18,19,20,17,18,19,20,
177,178,179,180,33,34,35,36,33,34,35,36,33,34,35,36,33,34,145,146,147,148,57,58,33,34,35,36,33,34,35,36,33,34,41,42,161,162,163,164,33,34,35,36,33,34,35,36,33,34,35,36,33,34,35,36,33,34,35,36,189,190,191,192,
1,2,3,4,1,2,3,4,1,2,3,4,1,2,3,4,1,2,73,74,75,76,3,4,1,2,3,4,1,2,3,4,1,2,57,58,177,178,179,180,1,2,3,4,1,2,3,4,1,2,3,4,1,2,3,4,1,2,3,4,205,206,207,208,
17,18,19,20,17,18,19,20,17,18,19,20,17,18,19,20,17,18,89,90,91,92,19,20,17,18,19,20,17,18,19,20,17,18,19,20,17,18,41,42,17,18,19,20,17,18,19,20,17,18,19,20,17,18,19,20,17,18,19,20,221,222,223,224,
33,34,35,36,33,34,35,36,33,34,35,36,33,34,35,36,33,34,105,106,107,108,35,36,33,34,35,36,33,34,35,36,33,34,35,36,33,34,57,58,33,34,35,36,129,130,131,132,33,34,35,36,33,34,35,36,33,34,35,36,237,238,239,240,
1,2,3,4,1,2,3,4,1,2,3,4,1,2,3,4,1,2,121,122,123,124,3,4,1,2,3,4,1,2,3,4,1,2,3,4,1,2,3,4,1,2,3,4,145,146,147,148,1,2,3,4,1,2,3,4,117,118,119,120,253,254,255,256,
17,18,19,20,17,18,19,20,17,18,19,20,17,18,19,20,41,42,137,138,139,140,19,20,17,18,19,20,17,18,19,20,17,18,19,20,17,18,19,20,17,18,19,20,161,162,163,164,17,18,19,20,17,18,19,20,133,134,135,136,269,270,271,272,
33,34,35,36,33,34,35,36,33,34,35,36,33,34,35,36,57,58,153,154,155,156,35,36,33,34,35,36,33,129,130,131,132,34,35,36,33,34,35,36,33,34,35,36,177,178,179,180,33,34,35,36,33,34,35,36,149,150,151,152,189,190,191,192,
1,2,3,4,1,2,3,4,1,2,3,4,1,2,3,4,1,2,3,4,1,2,3,4,1,2,3,4,1,145,146,147,148,2,3,4,1,2,3,4,1,2,3,4,1,2,3,4,1,129,130,131,132,41,42,4,165,166,167,168,205,206,207,208,
17,18,19,20,129,130,131,132,17,18,19,20,17,18,19,20,17,18,19,20,17,18,129,130,131,132,19,20,17,73,74,75,76,18,19,20,17,18,117,118,119,120,19,20,17,18,19,20,17,145,146,147,148,57,58,20,181,182,183,184,221,222,223,224,
131,132,35,36,145,146,147,148,33,34,35,36,33,34,35,36,33,34,35,36,33,34,145,146,147,148,35,36,33,89,90,91,92,34,35,36,33,34,133,134,135,136,35,36,129,130,131,132,33,73,74,75,76,193,194,195,196,197,35,36,237,238,239,240,
147,148,3,4,161,162,163,164,1,2,3,4,1,2,3,4,1,2,3,4,1,2,161,162,163,164,3,4,1,105,106,107,108,2,3,4,1,2,149,150,151,152,3,4,145,146,147,148,1,89,90,91,92,209,210,211,212,213,3,4,253,254,255,256,
163,164,19,20,177,178,179,180,41,42,19,20,17,18,19,20,17,18,19,20,17,18,177,178,179,180,19,20,17,121,122,123,124,18,19,20,17,18,165,166,167,168,19,20,161,162,163,164,17,105,106,107,108,225,226,227,228,229,19,20,269,270,271,272,
179,180,35,36,33,34,35,36,57,58,35,36,33,34,35,36,33,34,35,36,33,34,35,36,33,34,35,36,33,137,138,139,140,34,35,36,33,34,181,182,183,184,35,36,177,178,179,180,33,121,122,123,124,241,242,243,244,245,35,36,189,190,191,192,
49,50,51,52,49,50,51,52,49,50,51,52,49,50,51,52,49,50,51,52,49,50,51,52,49,50,51,52,1,153,154,155,156,2,117,118,119,120,129,130,131,132,117,118,119,120,306,306,307,137,138,139,140,257,258,259,260,261,3,4,205,206,207,208,
65,66,67,68,65,66,67,68,65,66,67,68,65,66,67,68,65,66,67,68,65,66,67,68,65,66,67,68,129,130,131,132,131,132,133,134,135,136,145,146,147,148,133,134,135,136,306,163,164,153,154,155,156,273,274,275,276,277,163,164,221,222,223,224,
81,82,83,84,81,82,83,84,81,82,83,84,81,82,83,84,81,82,83,84,81,82,83,84,81,82,83,84,145,146,147,148,147,148,149,150,151,152,161,162,163,164,149,150,151,152,306,179,180,323,35,36,33,289,290,291,292,293,179,180,237,238,239,240,
97,98,99,100,97,98,99,100,97,98,99,100,97,98,99,100,97,98,99,100,97,98,99,100,97,98,99,100,35,322,129,130,131,132,165,166,167,168,177,178,179,180,165,166,167,168,129,130,131,132,35,120,1,2,3,129,130,131,132,4,253,254,255,256,
113,114,115,116,113,114,115,116,113,114,115,116,113,114,115,116,113,114,115,116,113,114,115,116,113,114,115,116,35,322,145,146,147,148,181,182,183,184,19,20,17,18,181,182,183,184,145,146,147,148,35,35,17,18,19,145,146,147,148,20,269,270,271,272
</data>
 </layer>
</map>
